X:1
T:Title
%%score { 1 | 2 }
L:1/8
M:6/8
K:G
V:1 treble nm="Grand Piano"
V:2 treble 
V:1
 z3 z2[Q:1/4=100] G | B>BB B_B=B | ded d2 B | [EG]>[^DF][EG] [EA][EG][CE] | [B,D]3- [B,D]2 G | %5
 B>BB B_B=B | ded d2 B/B/ | [GB][GA][GA] ABA |[M:5/8] [FA]-[FA]- [FA]3 |[M:1/8] [Fd] | %10
[M:3/4] B2 BB/G/- GA | B2 c B2 [FA] | [EG]2 [EG][EA] [EG]E | D4- DD | BB B c2 c | %15
[M:7/8] d2 G [Ee]3 [Ec][Q:1/4=97][Q:1/4=94][Q:1/4=91][Q:1/4=88][Q:1/4=84][Q:1/4=81][Q:1/4=78] | %16
[M:3/4] [DB][DG] [Fc][GB]/G/- GA |[M:5/8] G-G- G3 |] %18
V:2
 z3 z2 [G,B,D] | [G,DG]>[G,DG][G,DG] [G,DG][G,^CG][G,DG] | [G,B,G][G,CG][G,B,G] [G,B,G]2 [G,D=F] | %3
 [C,C]>[C,C][C,C] [C,C][C,C][C,G,] | [G,,G,]3- [G,,G,]2[K:treble] [G,B,D] | %5
 [G,DG]>[G,DG][G,DG] [G,DG][G,^CG][G,DG] | [G,B,G][G,CG][G,B,G] [G,B,G]2 [G,DG]/[G,DG]/ | %7
 [E,^C][E,C][E,C][K:treble] [A,CG][A,CG][A,CG] |[M:5/8][K:bass] [D,D]-[D,D]- [D,D]3 | %9
[M:1/8] [D,D] |[M:3/4][K:treble] [G,DG]2 [G,DG][G,DG]/[G,B,D]/- [G,B,D][G,CD] | %11
 [G,DG]2 [G,EG] [G,DG]2[K:bass] [D,C] | [E,B,]2 [E,B,][C,C] [C,C][E,G,C] | [G,B,]4- [G,B,][G,B,] | %14
 [G,D][G,D] [G,DG] [A,DF]2 [A,DF] |[M:7/8] [B,DG]2 [G,B,=F][K:bass] [C,G,]3 [C,G,] | %16
[M:3/4] [D,G,][D,B,] [D,A,][D,D]/[D,B,D]/- [D,B,D][D,CD] |[M:5/8] [G,B,D]-[G,B,D]- [G,B,D]3 |] %18

